!!!OTL: Puer natus in Bethleem
**kern
*staff1
=1-
*clefF3
*k[]
*M3/1
1r
1r
1A
=2
0A
1A
=3
0G
1G
=4
0C
1D
=5
0E
1E
=6
0C
1D
=7
1E
1F
1G
=8
0C
1C
=9
!!linebreak:original
0C
1C
=10
0G
1G
=11
1A
0E
=12
0F
1F
=13
0E
1A
=14
0G
1G
=15
0C
1D
=16
1F
0E
=17
0AA
==
*-
!!title: @{OTL}, @{GTL}, ed. @{ENC}
!!!pag:
!!!GTL: Hymnbook D
!!!EFL: 
!!!YEM: Creative Commons CC/BY/NC/SA 4.0
!!!ENC: Marcin Konik
!!!END: 2015-0m-dd
!!!EED: Marcin Konik
!!!EEV: 
!!!ONB: Encoded in vim by Marcin Konik
!!!CharacterEncoding: utf-8
!!!RDF**kern: l=long note in original notation
!!!RDF**kern: i=editorial accidental
!!muse2ps: z14jc180F
!!!COM: Anonim
!!!CDT: [?]
!!!TXO: Polish
!!!ODT: 
!!!GTL: Hymnbook D
!!!ARL: Opactwo św. Wojciecha, Staniątki 
!!!voices:	1
